X:482
T:Gloomy Winter’s Night,The. RH.482
T:Theme from The Piano! RH.482
R:air
S:Rev.R.Harrison’s MS,c1815,Cumbria
O:England
A:Temple Sowerby,Cumbria
Z:vmp.Simon Wilson. Review PJH, 2008.
M:C|
L:1/8
Q:1/4=100
K:Dm
d>d d>e d>c A2|f>f f>a g>f e2|\
d>d a>d d>c A>F|G>G”sic” A2 ^c>d D D||!
F>F F>A G>FE2|FE D>F EAA2|\
f>f f>a g>f f>g|f>d f/e/d/c/ Add2|!
f>f bf e>f g2|f>e d>f e>g g2|\
A>c c/A/c/B/ Ad dg|fe f/e/d/c/ A>d d2|]

